X: 76
T:Christmas Eve in the Morning (4/4)
M:4/4
L:1/8
Q:1/8=100
C:Fredaman Stickle
R:Strathspey
A:Shetland
Z:Steve Mansfield December 2000
K:AMix
d>e|
:~f>A fg/a/ e>d c>A | B>G d>c B<G G2 |
e>f g>f e>d c>B |1 A/B/A A/B/c d2 d>e :|
2 A/B/A A/B/c (d2 d2)|
: e2 e(3 d/e/f/ g2 B2 | A2A2 B>c d<B |
e2 e(3 d/e/f/ g2 B2 | A>e d>B A2 A2 :|
